icons/afpub.svg

<svg width="16" height="16" viewBox="0 0 16 16" fill="none" xmlns="http://www.w3.org/2000/svg">
<path d="M3.6324 8.09796L2 11V13C2 13.5523 2.44772 14 3 14H6.46538L3.6324 8.09796Z" fill="#FF9350"/>
<path d="M7.57461 14L4.23091 7.03394L4.98132 5.69987L8.96538 14H7.57461Z" fill="#FF9350"/>
<path d="M10.0746 14H11.4654L6.33024 3.30179L5.57983 4.63586L10.0746 14Z" fill="#FF9350"/>
<path d="M7.29462 3L12.5746 14H13C13.3175 14 13.6004 13.852 13.7836 13.6213L8.68538 3H7.29462Z" fill="#FF9350"/>
<path d="M9.79462 3L14 11.7612V4C14 3.44772 13.5523 3 13 3H9.79462Z" fill="#FF9350"/>
</svg>

<svg xmlns="http://www.w3.org/2000/svg" width="16" height="16" fill="none"><path fill="#FF9350" d="M3.632 8.098 2 11v2a1 1 0 0 0 1 1h3.465L3.632 8.098ZM7.575 14 4.23 7.034 4.98 5.7 8.965 14h-1.39Zm2.5 0h1.39L6.33 3.302l-.75 1.334L10.075 14ZM7.295 3l5.28 11H13c.318 0 .6-.148.784-.379L8.685 3h-1.39Zm2.5 0L14 11.761V4a1 1 0 0 0-1-1H9.795Z"/></svg>
